svgs/sharp-light/location-crosshairs.svg

<svg xmlns="http://www.w3.org/2000/svg" viewBox="0 0 512 512"><!--! Font Awesome Pro 6.6.0 by @fontawesome - https://fontawesome.com License - https://fontawesome.com/license (Commercial License) Copyright 2024 Fonticons, Inc. --><path d="M272 0l0 16 0 48.7c93.3 7.7 167.6 82.1 175.3 175.3l48.7 0 16 0 0 32-16 0-48.7 0c-7.7 93.3-82.1 167.6-175.3 175.3l0 48.7 0 16-32 0 0-16 0-48.7C146.7 439.6 72.4 365.3 64.7 272L16 272 0 272l0-32 16 0 48.7 0C72.4 146.7 146.7 72.4 240 64.7L240 16l0-16 32 0zM96 256a160 160 0 1 0 320 0A160 160 0 1 0 96 256zm224 0a64 64 0 1 0 -128 0 64 64 0 1 0 128 0zm-160 0a96 96 0 1 1 192 0 96 96 0 1 1 -192 0z"/></svg>

<svg xmlns="http://www.w3.org/2000/svg" viewBox="0 0 512 512"><!--! Font Awesome Pro 6.4.0 by @fontawesome - https://fontawesome.com License - https://fontawesome.com/license (Commercial License) Copyright 2023 Fonticons, Inc. --><path d="M272 0V16 64.7c93.3 7.7 167.6 82.1 175.3 175.3H496h16v32H496 447.3c-7.7 93.3-82.1 167.6-175.3 175.3V496v16H240V496 447.3C146.7 439.6 72.4 365.3 64.7 272H16 0V240H16 64.7C72.4 146.7 146.7 72.4 240 64.7V16 0h32zM96 256a160 160 0 1 0 320 0A160 160 0 1 0 96 256zm224 0a64 64 0 1 0 -128 0 64 64 0 1 0 128 0zm-160 0a96 96 0 1 1 192 0 96 96 0 1 1 -192 0z"/></svg>
